X:243
T: Das Lied vom Ackersmann (3-46), S. 137
N: P1018
O: Lothringen
S: PINCK, Louis: Verklingende Weisen, Bd3, Metz 1933]
R: Berufslied]
M: 2/4
L: 1/8
K: D
=FE | DDD2 | A3B=c2 | B2A2 | G4 |
G2 | A2B=c | d3ed2 | =c2B2 | A4 |
AG | A2d2 | =c2B2A2 | =c2B2 | A4 |
=c2 | B2A2 | G4AG | =F2E2 | D4 |
D2 | =F2G2 | A3G=F2 | A2B2 | A3G=F2 | E2G2 | D4

@@@ Tune index: 7793
